**kern	**text	**kern	**text	**kern	**text	**kern	**text	**kern	**text	**cdata-harm
*staff5	*staff5	*staff4	*staff4	*staff3	*staff3	*staff2	*staff2	*staff1	*staff1	*
=1-	=1-	=1-	=1-	=1-	=1-	=1-	=1-	=1-	=1-	=1-
*clefF4	*	*clefGv2	*	*clefGv2	*	*clefG2	*	*clefG2	*	*
*k[]	*	*k[]	*	*k[]	*	*k[]	*	*k[]	*	*
*M4/4	*	*M4/4	*	*M4/4	*	*M4/4	*	*M4/4	*	*
1r	.	2f\	Mo-	2r	.	1r	.	4r	.	<CON_3v
.	.	.	.	.	.	.	.	2a/	Mo-	.
.	.	[2d\	viil	2f\	Mo-	.	.	.	.	.
.	.	.	.	.	.	.	.	[4f/	viil	.
=2	=2	=2	=2	=2	=2	=2	=2	=2	=2	.
1r	.	4d\]	.	4d\	viil	1r	.	4f/]	.	.
.	.	4A/	tuo	4f\	tuo	.	.	4a/	tuo	.
.	.	4c\	plet-	2e\	plet-	.	.	4.g/	ple-	.
.	.	4G/	troA-	.	.	.	.	.	.	.
.	.	.	.	.	.	.	.	8f/	.	.
=3	=3	=3	=3	=3	=3	=3	=3	=3	=3	.
1r	.	2A/	po-	4c#\	troA-	2r	.	4e/	.	.
.	.	.	.	2d\	po-	.	.	4f/	troA-	.
.	.	2A/	lo	.	.	4r	.	2e/	pol-	.
.	.	.	.	4c#\	lo	8a/L	A-	.	.	><CON_3v_doub
.	.	.	.	.	.	8b/J	men	.	.	.
=4	=4	=4	=4	=4	=4	=4	=4	=4	=4	.
1r	.	4r	.	4r	.	2cc\	lie-	2e/	lo	.
.	.	8A/L	A-	8c\L	A-	.	.	.	.	.
.	.	8B/J	men	8d\J	men	.	.	.	.	.
.	.	2c\	lie-	2e\	li-	4g/	taar-	4r	.	.
.	.	.	.	.	.	4g/	mo-	8e/L	A-	.
.	.	.	.	.	.	.	.	8f/J	men	.
=5	=5	=5	=5	=5	=5	=5	=5	=5	=5	.
1r	.	2G/	taar-	2d\	taar-	1b-\	ni-	2g/	lie-	.
.	.	2G/	mo-	2g\	mo-	.	.	4d/	taar-	.
.	.	.	.	.	.	.	.	[4e/	mo-	.
=6	=6	=6	=6	=6	=6	=6	=6	=6	=6	.
1r	.	1A/	ni-	4.f\	ni-	1a/	a	4e/]	.	.
.	.	.	.	.	.	.	.	2d/	ni-	.
.	.	.	.	16e\LL	.	.	.	.	.	.
.	.	.	.	16d\JJ	.	.	.	.	.	.
.	.	.	.	2e\	.	.	.	.	.	.
.	.	.	.	.	.	.	.	4c/	.	.
=7	=7	=7	=7	=7	=7	=7	=7	=7	=7	.
2F\	Mo-	1D/	a	4d\	a	4r	.	2d/	a	><CON_3v_doub
.	.	.	.	2d\	Mo-	2a/	Mo-	.	.	.
[2D\	viil	.	.	.	.	.	.	2f/	Mo-	.
.	.	.	.	4A/	viil	[4f/	viil	.	.	.
=8	=8	=8	=8	=8	=8	=8	=8	=8	=8	.
4D\]	.	1r	.	4A/	tuo	4f/]	.	4d/	viil	.
4AA/	tuo	.	.	2c\	plet-	4a/	tuo	4f/	tuo	.
4C/	plet-	.	.	.	.	[2g/	plet-	4e/	plet-	.
4GG/	troA-	.	.	4B-\	troA-	.	.	4d/	troA-	.
=9	=9	=9	=9	=9	=9	=9	=9	=9	=9	.
2AA/	pol-	1r	.	2A/	pol-	4g/]	.	4c/	pol-	.
.	.	.	.	.	.	4f/	roA-	4c/	lo	.
4AA/	lo	.	.	2A/	lo	4e/	pol-	2cc\	Mo-	.
[4A\	Mo-	.	.	.	.	4e/	lo	.	.	.
=10	=10	=10	=10	=10	=10	=10	=10	=10	=10	.
4A\]	.	2c\	Mo-	2f\	Mo-	1r	.	2.a/	viil	.
2F\	viil	.	.	.	.	.	.	.	.	.
.	.	4A/	viil	4c\	viil	.	.	.	.	.
4A\	tuo	4c\	tuo	4c\	tuo	.	.	4e/	tuo	.
=11	=11	=11	=11	=11	=11	=11	=11	=11	=11	.
4.G\	plet-	2B\	plet-	2.d\	plet-	1r	.	4g/	plet-	.
.	.	.	.	.	.	.	.	4d/	troA-	.
8F\	.	.	.	.	.	.	.	.	.	.
4E\	.	4G#/	troA-	.	.	.	.	[2e/	pol-	.
4AA/	toA-	[4A/	pol-	4c\	troA-	.	.	.	.	.
=12	=12	=12	=12	=12	=12	=12	=12	=12	=12	.
4E\	pol-	8A/L]	.	2B\	pol-	2r	.	2e/]	.	.
.	.	8G/J	.	.	.	.	.	.	.	.
4E\	lo	4G/	.	.	.	.	.	.	.	.
2r	.	2A/	lo	4c\	lo	4r	.	2e/	lo	>
.	.	.	.	8c\L	A-	8a/L	A-	.	.	<CON_3v_doub+doube
.	.	.	.	8d\J	men	8b/J	men	.	.	.
=13	=13	=13	=13	=13	=13	=13	=13	=13	=13	.
1r	.	4r	.	2e\	lie-	2cc\	lie-	4r	.	.
.	.	8A/L	A-	.	.	.	.	8cc\L	A-	.
.	.	8B/J	men	.	.	.	.	8dd\J	men	.
.	.	2c\	lie-	4e\	ta	4g/	taar-	2ee\	lie-	.
.	.	.	.	8e\L	A-	4g/	mo-	.	.	.
.	.	.	.	8f\J	men	.	.	.	.	.
=14	=14	=14	=14	=14	=14	=14	=14	=14	=14	.
4r	.	2G/	taar-	2g\	lie-	4b\	ni-	4dd\	taar-	.
8E\L	A-	.	.	.	.	4g/	a	4cc\	mo-	.
8F\J	men	.	.	.	.	.	.	.	.	.
2G\	lie-	2G/	mo-	4d\	taar-	4r	.	2b\	ni-	.
.	.	.	.	4d\	mo-	8b\L	A-	.	.	.
.	.	.	.	.	.	8cc\J	men-	.	.	.
=15	=15	=15	=15	=15	=15	=15	=15	=15	=15	.
2D\	taar-	4A/	ni-	1f\	ni-	2dd\	lie-	4a/	a	.
.	.	4D/	a	.	.	.	.	8b\L	A-	.
.	.	.	.	.	.	.	.	8cc\J	men	.
2D\	mo-	2r	.	.	.	4a/	taar-	2dd\	lie-	.
.	.	.	.	.	.	[4b\	mo-	.	.	.
=16	=16	=16	=16	=16	=16	=16	=16	=16	=16	.
1E\	ni-	2r	.	1e\	.	4b\]	.	4g/	taar-	.
.	.	.	.	.	.	2a/	.	4cc\	mo-	.
.	.	2e\	Poi-	.	.	.	.	2b\	ni-	<<CON_5v
.	.	.	.	.	.	4g/	.	.	.	.
=17	=17	=17	=17	=17	=17	=17	=17	=17	=17	.
2AA/	a	4e\	che	2c#\	a	[1a/	a	4a/	a	>
.	.	4e\	quel	.	.	.	.	4ee\	Poi-	.
2A\	Poi-	4.c#\	lau-	2r	.	.	.	4ee\	che	.
.	.	.	.	.	.	.	.	4ee\	quel	.
.	.	8d\	.	.	.	.	.	.	.	.
=18	=18	=18	=18	=18	=18	=18	=18	=18	=18	.
4A\	che	2e\	.	4r	.	2a/]	.	4.cc#\	lau-	.
4A\	quel	.	.	4e\	Poi-	.	.	.	.	.
.	.	.	.	.	.	.	.	8dd\	.	.
2G#\	lau-	2B\	ro	4e\	che	2r	.	2ee\	.	.
.	.	.	.	4e\	quel	.	.	.	.	.
=19	=19	=19	=19	=19	=19	=19	=19	=19	=19	.
1A\	ro	2r	.	4.c#\	lau-	2a/	Poi-	4e/	ro	.
.	.	.	.	.	.	.	.	8ee\L	che	.
.	.	.	.	8d\	.	.	.	8dd\J	gi&agrave;	.
.	.	4r	.	2e\	.	4a/	che	4cc\	f&ugrave;	.
.	.	4e\	Poi-	.	.	4a/	quel	4cc\	si	.
=20	=20	=20	=20	=20	=20	=20	=20	=20	=20	.
2r	.	4e\	che	4E/	ro	2g#/	lau-	2b\	ver-	.
.	.	4e\	quel	4E/	quel	.	.	.	.	.
2A\	Poi	4.c#\	lau-	2e\	lau-	4a/	ro	2a/	de	.
.	.	.	.	.	.	8ee\L	che	.	.	.
.	.	8d\	.	.	.	8dd\J	gi&agrave;	.	.	.
=21	=21	=21	=21	=21	=21	=21	=21	=21	=21	.
4A\	che	2e\	.	2A/	ro	4cc\	fu	1r	.	.
4A\	quel	.	.	.	.	4cc\	si	.	.	.
2G#\	lau-	2E/	ro	4r	.	2b\	ver-	.	.	.
.	.	.	.	8e\L	che	.	.	.	.	.
.	.	.	.	8d\J	gi&agrave;	.	.	.	.	.
=22	=22	=22	=22	=22	=22	=22	=22	=22	=22	.
2A\	ro	4r	.	4c\	fu	2a/	de	4r	.	.
.	.	8e\L	che	4A/	si	.	.	4a/	Poi-	.
.	.	8d\J	gi&agrave;	.	.	.	.	.	.	.
4r	.	4c\	fu	[2e\	ver-	2r	.	4a/	che	.
4AA/	quel	4c\	si	.	.	.	.	4a/	quel	.
=23	=23	=23	=23	=23	=23	=23	=23	=23	=23	.
2E\	lau-	2B\	ver-	2e\]	.	4r	.	2g#/	lau-	.
.	.	.	.	.	.	8ee\L	che	.	.	.
.	.	.	.	.	.	8dd\J	gi&agrave;	.	.	.
2AA/	ro	2A/	de	2e\	de	2cc\	fu	4a/	ro	.
.	.	.	.	.	.	.	.	8ee\L	che	.
.	.	.	.	.	.	.	.	8dd\J	gi&agrave;	.
=24	=24	=24	=24	=24	=24	=24	=24	=24	=24	.
2r	.	4r	.	2r	.	4a/	si	4cc\	fu	.
.	.	4A/	quel	.	.	[4a/	ver-	4cc\	si	.
4r	.	2e\	lau-	4r	.	8a/L]	.	2b\	ver-	.
.	.	.	.	.	.	8g/J	.	.	.	.
8E\L	che	.	.	4e\	si	8g/L	.	.	.	.
8D\J	gi&agrave;	.	.	.	.	16f/L	.	.	.	.
.	.	.	.	.	.	16g/JJ	.	.	.	.
=25	=25	=25	=25	=25	=25	=25	=25	=25	=25	.
2C/	fu	4E/	ro	1e\	ver-	4a/	.	4a/	de	.
.	.	8B\L	che	.	.	4e/	de.	8ee\L	che	.
.	.	8c\J	gi&agrave;	.	.	.	.	8dd\J	gi&agrave;	.
2AA/	si	4d\	fu	.	.	2r	.	4cc\	fu	.
.	.	4A/	si	.	.	.	.	4cc\	si	.
=26	=26	=26	=26	=26	=26	=26	=26	=26	=26	.
2E\	ver-	2G#/	ver-	1e\	de.	2r	.	2.b\	ver-	.
2E\	de.	2G#/	de.	.	.	[2ee\	Po-	.	.	.
.	.	.	.	.	.	.	.	4b\	de.	>
=27	=27	=27	=27	=27	=27	=27	=27	=27	=27	.
1r	.	1r	.	4c\	Po-	4ee\]	.	4cc\	Po-	<HOM_3v
.	.	.	.	8g\L	co	8dd\L	co	8b/L	co	.
.	.	.	.	8a\J	per	8cc\J	per	8a/J	per	.
.	.	.	.	2e\	noi	4b\	noi	4g#/	noi	.
.	.	.	.	.	.	4cc#\	ri-	4a/	ri-	.
=28	=28	=28	=28	=28	=28	=28	=28	=28	=28	.
1r	.	1r	.	2d\	ri-	4.dd\	ver-	8b/L	ver-	.
.	.	.	.	.	.	.	.	8a/J	.	.
.	.	.	.	.	.	.	.	[4a/	.	.
.	.	.	.	.	.	8cc\	.	.	.	.
.	.	.	.	2e\	ver-	2b\	.	8a/L]	.	.
.	.	.	.	.	.	.	.	8g/J	.	.
.	.	.	.	.	.	.	.	8g/L	.	.
.	.	.	.	.	.	.	.	16f/L	.	.
.	.	.	.	.	.	.	.	16g/JJ	.	.
=29	=29	=29	=29	=29	=29	=29	=29	=29	=29	.
1r	.	2r	.	1A/	de	1a/	de	2a/	.	.
.	.	[2c\	Ahi	.	.	.	.	2e/	de	>
=30	=30	=30	=30	=30	=30	=30	=30	=30	=30	.
1F\	Ahi	2c\]	.	2r	.	1cc\	Ahi	[1a/	Ahi	<CON_5v
.	.	[2A/	Ahi	[2f\	Ahi	.	.	.	.	.
=31	=31	=31	=31	=31	=31	=31	=31	=31	=31	.
2.D\	Ahi	4A/]	.	2f\]	.	1f/	Ahi	1a/]	.	.
.	.	8B\L	ch'io	.	.	.	.	.	.	.
.	.	8c\J	lo	.	.	.	.	.	.	.
.	.	4d\	pro-	[2d\	Ahi	.	.	.	.	.
8E\L	ch'io	4c\	voe	.	.	.	.	.	.	.
8F\J	lo	.	.	.	.	.	.	.	.	.
=32	=32	=32	=32	=32	=32	=32	=32	=32	=32	.
4G\	pro-	2.B\	sol-	4d\]	.	1r	.	2r	.	.
4F\	voe	.	.	8e\L	ch'io	.	.	.	.	.
.	.	.	.	8f\J	lo	.	.	.	.	.
2E\	so-	.	.	4g\	pro-	.	.	[2e/	Ahi	.
.	.	8A/L	.	4f\	voe	.	.	.	.	.
.	.	8B/J	.	.	.	.	.	.	.	.
=33	=33	=33	=33	=33	=33	=33	=33	=33	=33	.
2A\	lo	4c#\	.	1e\	sol-	2r	.	4e/]	.	.
.	.	2d\	.	.	.	.	.	8f/L	ch'io	.
.	.	.	.	.	.	.	.	8g/J	lo	.
2AA/	e	.	.	.	.	[2a/	Ahi	4a/	pro-	.
.	.	4c#\	.	.	.	.	.	4g/	voe	.
=34	=34	=34	=34	=34	=34	=34	=34	=34	=34	.
1D\	so-	2.d\	.	2A/	lo	4a/]	.	4.f#/	sol-	.
.	.	.	.	.	.	8b\L	ch'io	.	.	.
.	.	.	.	.	.	8cc\J	lo	8e/	.	.
.	.	.	.	2A/	e	[2dd\	pro-	8f#/L	.	.
.	.	.	.	.	.	.	.	8g/J	.	.
.	.	4c\	.	.	.	.	.	8a/L	.	.
.	.	.	.	.	.	.	.	8f#/J	.	.
=35	=35	=35	=35	=35	=35	=35	=35	=35	=35	.
[1E\	lo	2B\	.	[1e\	so-	2dd\]	.	2g#/	.	.
.	.	[2A/	lo	.	.	2cc\	voe	2a/	lo	.
=36	=36	=36	=36	=36	=36	=36	=36	=36	=36	.
1E\_	.	4A/]	.	1e\]	.	2b\	sol-	1r	.	.
.	.	4G/	e	.	.	.	.	.	.	.
.	.	2c\	so-	.	.	[2a/	.	.	.	.
=37	=37	=37	=37	=37	=37	=37	=37	=37	=37	.
1E\]	.	2B\	lo	1e\	lo	2a/]	.	2r	.	>
.	.	4r	.	.	.	2g/	.	2b\	Pe-	<ANTIF_3v+CON
.	.	4E/	Pe-	.	.	.	.	.	.	.
=38	=38	=38	=38	=38	=38	=38	=38	=38	=38	.
1r	.	4A/	r&ograve;	2c\	lo	1a/	lo	4cc\	r&ograve;	.
.	.	4F/	che	.	.	.	.	4a/	che	.
.	.	4A/	tut-	2f\	pro-	.	.	4cc\	tut-	.
.	.	4B\	ta-	.	.	.	.	4dd\	ta-	.
=39	=39	=39	=39	=39	=39	=39	=39	=39	=39	.
2r	.	2c\	vi-	4e\	voe	2r	.	2ee\	vi-	.
.	.	.	.	2a\	so-	.	.	.	.	.
2E\	Pe-	2B\	a	.	.	4r	.	2ee\	a	.
.	.	.	.	4g\	lo	4e/	Pe-	.	.	.
=40	=40	=40	=40	=40	=40	=40	=40	=40	=40	.
4F\	r&ograve;	2d\	Veg-	2r	.	4a/	r&ograve;	1r	.	.
4D\	che	.	.	.	.	4f/	che	.	.	.
4F\	tut-	4d\	go	2f\	Pe-	4a/	tut-	.	.	.
4G\	ta-	4d\	che	.	.	4b\	ta-	.	.	.
=41	=41	=41	=41	=41	=41	=41	=41	=41	=41	.
2A\	vi-	2c\	nul-	[1e\	r&ograve;	[1cc\	vi-	2a/	Veg-	.
2A\	a	2A/	lao	.	.	.	.	4a/	go	.
.	.	.	.	.	.	.	.	4a/	che	.
=42	=42	=42	=42	=42	=42	=42	=42	=42	=42	.
1r	.	1c\	po-	2e\]	.	2cc\]	.	2g/	nul-	.
.	.	.	.	4r	.	2g/	a	4e/	la	.
.	.	.	.	4e\	Pe-	.	.	4e/	pe-	.
=43	=43	=43	=43	=43	=43	=43	=43	=43	=43	.
2D\	Veg-	2F/	co	4f\	r&ograve;	2r	.	4a/	r&ograve;	.
.	.	.	.	4d\	che	.	.	4f/	che	.
4D\	go	2r	.	4f\	tut-	2d/	Pe-	4a/	tut-	.
4D\	che	.	.	4g\	ta-	.	.	4b\	ta-	.
=44	=44	=44	=44	=44	=44	=44	=44	=44	=44	.
2C/	nul-	4r	.	2a\	vi-	[1e/	r&ograve;	[1cc\	vi-	.
.	.	4A/	Pe-	.	.	.	.	.	.	<<CON_5v_2mot
2AA/	la&ograve;	4A/	r&ograve;	2a\	a	.	.	.	.	>
.	.	4A/	che	.	.	.	.	.	.	.
=45	=45	=45	=45	=45	=45	=45	=45	=45	=45	.
1C/	po-	2G/	tut-	2r	.	1e/]	.	2cc\]	.	.
.	.	2E/	ta-	4r	.	.	.	2g/	a	.
.	.	.	.	4G/	Pe-	.	.	.	.	.
=46	=46	=46	=46	=46	=46	=46	=46	=46	=46	.
1FF/	co	1F/	vi-	4c\	r&ograve;	2r	.	2a/	Veg-	.
.	.	.	.	4A/	che	.	.	.	.	.
.	.	.	.	4c\	tut-	2A/	pe-	4a/	go	.
.	.	.	.	4d\	ta	.	.	4a/	che	.
=47	=47	=47	=47	=47	=47	=47	=47	=47	=47	.
1r	.	1C/	a	2.e\	vi-	4c/	r&ograve;	2g/	nul-	.
.	.	.	.	.	.	4B/	che	.	.	.
.	.	.	.	.	.	4c/	tut-	2e/	la&ograve;	.
.	.	.	.	4d\	.	4d/	ta-	.	.	.
=48	=48	=48	=48	=48	=48	=48	=48	=48	=48	.
1r	.	2r	.	2.c\	.	2e/	vi-	2g/	po-	.
.	.	2C/	Veg-	.	.	2e/	a	4c/	co	.
.	.	.	.	4B\	.	.	.	4g/	pe-	.
=49	=49	=49	=49	=49	=49	=49	=49	=49	=49	.
2D\	Veg-	4F/	go	1A/	.	1r	.	4a/	r&ograve;	.
.	.	4D/	che	.	.	.	.	4f/	che	.
4D\	go	4F/	nul-	.	.	.	.	4a/	tut-	.
4D\	che	4G/	la&ograve;	.	.	.	.	4b\	ta-	.
=50	=50	=50	=50	=50	=50	=50	=50	=50	=50	.
2C/	nul-	2A/	po-	2E/	a	2a/	Veg-	2cc\	vi-	.
2AA/	la&ograve;	2A/	co	2e\	Veg-	4a/	go	2c/	a	.
.	.	.	.	.	.	4a/	che	.	.	.
=51	=51	=51	=51	=51	=51	=51	=51	=51	=51	.
[1C/	po-	2r	.	4e\	go	8g/L	nul-	2c/	Veg-	.
.	.	.	.	.	.	8f/J	.	.	.	.
.	.	.	.	4e\	che	8e/L	.	.	.	.
.	.	.	.	.	.	8f/J	.	.	.	.
.	.	2C/	Veg-	[2c\	nul-	4g/	.	4e/	go	.
.	.	.	.	.	.	4a/	la	4f/	che	.
=52	=52	=52	=52	=52	=52	=52	=52	=52	=52	.
1C/]	.	4E/	go	4c\]	.	4g/	o	4g/	nul-	.
.	.	4F/	che	4A/	lao	2f/	po-	4a/	lao	.
.	.	4G/	nul-	2c\	po-	.	.	2g/	po-	.
.	.	4G/	lao	.	.	4e/	.	.	.	.
=53	=53	=53	=53	=53	=53	=53	=53	=53	=53	.
[1FF/	co	4.A/	po-	1c\	co	4f/	co	[1f/	co	>>
.	.	.	.	.	.	[4a/	scop-	.	.	<CON_5v
.	.	8B\	.	.	.	.	.	.	.	.
.	.	[2c\	.	.	.	8a\L]	.	.	.	.
.	.	.	.	.	.	8b\J	pia	.	.	.
.	.	.	.	.	.	4cc\	pi&ugrave;	.	.	.
=54	=54	=54	=54	=54	=54	=54	=54	=54	=54	.
1FF/_	.	2c\]	.	4r	.	8a\L	si	2f/]	.	.
.	.	.	.	.	.	8b\J	bel-	.	.	.
.	.	.	.	[4A/	Scop-	8cc\L	lau-	.	.	.
.	.	.	.	.	.	8b\J	.	.	.	.
.	.	2c\	co	8A\L]	.	8a/L	.	4r	.	.
.	.	.	.	8B\J	pia	8g/J	.	.	.	.
.	.	.	.	[4c\	pi&ugrave;	4f/	.	[4a/	Scop-	.
=55	=55	=55	=55	=55	=55	=55	=55	=55	=55	.
1FF/]	.	4r	.	4c\]	.	4c/	ro	8a/L]	.	.
.	.	.	.	.	.	.	.	8b/J	pia	.
.	.	2F/	Scop-	8A/L	si	[4a/	scop-	2cc\	pi&ugrave;	.
.	.	.	.	8B/J	bel	.	.	.	.	.
.	.	.	.	[2c\	lau-	8a\L]	.	.	.	.
.	.	.	.	.	.	8b\J	pia	.	.	.
.	.	4F/	pia	.	.	4cc\	pi&ugrave;	8a/L	si	.
.	.	.	.	.	.	.	.	8b/J	bel	.
=56	=56	=56	=56	=56	=56	=56	=56	=56	=56	.
1r	.	2F/	pi&ugrave;	2c\]	.	8a/L	si	8cc/L	lau-	.
.	.	.	.	.	.	8b/J	bel	8b/J	.	.
.	.	.	.	.	.	2cc\	lau-	8a/L	.	.
.	.	.	.	.	.	.	.	8g/J	.	.
.	.	4F/	si	2A/	ro	.	.	2f/	.	.
.	.	4F/	bel	.	.	4a/	roal	.	.	.
=57	=57	=57	=57	=57	=57	=57	=57	=57	=57	.
1r	.	[1c\	lau-	4r	.	4.g/	mi-	4e/	roal	.
.	.	.	.	[4e\	Scop-	.	.	[4g/	mio	.
.	.	.	.	.	.	8f/	o	.	.	.
.	.	.	.	8e\L]	.	8e/L	.	8g/L]	.	.
.	.	.	.	8f\J	pia	8d/J	.	8f/J	.	.
.	.	.	.	[4g\	pi&ugrave;	8c/L	.	8e/L	.	.
.	.	.	.	.	.	8d/J	.	8d/J	.	.
=58	=58	=58	=58	=58	=58	=58	=58	=58	=58	.
1r	.	2c\]	.	4g\]	.	8e/L	.	4c/	.	.
.	.	.	.	.	.	8f/J	.	.	.	.
.	.	.	.	8e\L	si	8g/L	.	4c/	gran	.
.	.	.	.	8f\J	bel	8a/J	.	.	.	.
.	.	2G/	roal	2g\	lau-	8b\L	.	2d/	fo-	.
.	.	.	.	.	.	8cc\J	.	.	.	.
.	.	.	.	.	.	8dd\L	.	.	.	.
.	.	.	.	.	.	8b\J	.	.	.	.
=59	=59	=59	=59	=59	=59	=59	=59	=59	=59	.
1r	.	2A/	mio	2e\	ro	8cc/L	.	4A/	co	.
.	.	.	.	.	.	8b/J	.	.	.	.
.	.	.	.	.	.	8a/L	.	4c/	al	.
.	.	.	.	.	.	8g/J	.	.	.	.
.	.	2B-\	gran	4r	.	4f/	.	2d/	mio	.
.	.	.	.	4g\	al	4d/	gran	.	.	.
=60	=60	=60	=60	=60	=60	=60	=60	=60	=60	.
1r	.	1A/	fo-	4c\	mio	1a/	fo-	4e/	gran	.
.	.	.	.	4d\	gran	.	.	2d/	fo-	.
.	.	.	.	2e\	fo-	.	.	.	.	.
.	.	.	.	.	.	.	.	4c/	co-	.
=61	=61	=61	=61	=61	=61	=61	=61	=61	=61	.
4r	.	2D/	co	[1d\	co	[1a/	co	4d/	.	.
[4D\	scop-	.	.	.	.	.	.	2f/	scop-	.
8D\L]	.	4.D/	scop-	.	.	.	.	.	.	.
8E\J	pia	.	.	.	.	.	.	.	.	.
4F\	pi&ugrave;	.	.	.	.	.	.	4f/	pia	.
.	.	8E/	pia	.	.	.	.	.	.	.
=62	=62	=62	=62	=62	=62	=62	=62	=62	=62	.
8D\L	si	4F/	pi&ugrave;	2d\]	.	1a/]	.	2f/	pi&ugrave;	.
8E\J	bel	.	.	.	.	.	.	.	.	.
2F\	lau-	8A/L	si	.	.	.	.	.	.	.
.	.	8B/J	bel	.	.	.	.	.	.	.
.	.	4c\	lau-	4r	.	.	.	4f/	si	.
4D\	roal	4d\	roal	[4A/	scop-	.	.	4f/	bel	.
=63	=63	=63	=63	=63	=63	=63	=63	=63	=63	.
4.C/	mio	4e\	mio	8A/L]	.	1r	.	[1cc\	lau-	.
.	.	.	.	8B/J	pia	.	.	.	.	.
.	.	4e\	gran	2c\	pi&ugrave;	.	.	.	.	.
8BB/	.	.	.	.	.	.	.	.	.	.
8AA/L	.	2f\	fo-	.	.	.	.	.	.	.
8GG/J	.	.	.	.	.	.	.	.	.	.
8FF/L	.	.	.	8A/L	si	.	.	.	.	.
8GG/J	.	.	.	8B/J	bel	.	.	.	.	.
=64	=64	=64	=64	=64	=64	=64	=64	=64	=64	.
8AA/L	.	2e\	co	2c\	lau-	1r	.	2cc\]	.	.
8BB/J	.	.	.	.	.	.	.	.	.	.
8C/L	.	.	.	.	.	.	.	.	.	.
8D/J	.	.	.	.	.	.	.	.	.	.
8E\L	.	4r	.	2B\	ro	.	.	2g/	roal	.
8F\J	.	.	.	.	.	.	.	.	.	.
8G\L	.	4g\	al	.	.	.	.	.	.	.
8E\J	.	.	.	.	.	.	.	.	.	.
=65	=65	=65	=65	=65	=65	=65	=65	=65	=65	.
8F\L	.	4c\	mio	2r	.	1r	.	2a/	mio	.
8E\J	.	.	.	.	.	.	.	.	.	.
8D\L	.	2d\	gran	.	.	.	.	.	.	.
8C\J	.	.	.	.	.	.	.	.	.	.
4BB-/	.	.	.	2g\	al	.	.	2b-\	gran	.
4GG/	gran	[4e\	fo-	.	.	.	.	.	.	.
=66	=66	=66	=66	=66	=66	=66	=66	=66	=66	.
2AA/	fo-	8e\L]	.	4c\	mio	2r	.	2a/	fo-	.
.	.	8f\J	.	.	.	.	.	.	.	.
.	.	2d\	.	4d\	gran	.	.	.	.	.
2AA/	co	.	.	4e\	fo-	4r	.	2a/	co	.
.	.	4c\	co	4e\	co	[4a/	Scop-	.	.	.
=67	=67	=67	=67	=67	=67	=67	=67	=67	=67	.
1r	.	2.F/	scop-	4.A/	scop-	8a/L]	.	2r	.	.
.	.	.	.	.	.	8b/J	pia	.	.	.
.	.	.	.	.	.	4cc\	pi&ugrave;	.	.	.
.	.	.	.	8B\	pia	.	.	.	.	.
.	.	.	.	4c\	pi&ugrave;	8a/L	si	4r	.	.
.	.	.	.	.	.	8b/J	bel	.	.	.
.	.	4F/	pia	8A/L	si	[4cc\	lau-	[4a/	Scop-	.
.	.	.	.	8B/J	bel	.	.	.	.	.
=68	=68	=68	=68	=68	=68	=68	=68	=68	=68	.
2.FF/	scop-	2F/	pi&ugrave;	1c\	lau-	4cc\]	.	8a/L]	.	.
.	.	.	.	.	.	.	.	8b/J	pia	.
.	.	.	.	.	.	4a/	ro	4cc\	pi&ugrave;	.
.	.	4F/	si	.	.	4r	.	8a/L	si	.
.	.	.	.	.	.	.	.	8b/J	bel	.
4FF/	pia	4F/	bel	.	.	[4a/	Scop-	[4cc/	lau-	.
=69	=69	=69	=69	=69	=69	=69	=69	=69	=69	.
2FF/	pi&ugrave;	[1c\	lau-	1A/	ro	8a/L]	.	8cc/L]	.	.
.	.	.	.	.	.	8b/J	pia	8b/J	.	.
.	.	.	.	.	.	4cc\	pi&ugrave;	8a/L	.	.
.	.	.	.	.	.	.	.	8g/J	.	.
4FF/	si	.	.	.	.	8a/L	si	2f/	.	.
.	.	.	.	.	.	8b/J	bel	.	.	.
4FF/	bel	.	.	.	.	[4cc\	lau-	.	.	.
=70	=70	=70	=70	=70	=70	=70	=70	=70	=70	.
[1C/	lau-	2c\]	.	4G/	si	4cc\]	.	4e/	ro	.
.	.	.	.	4A/	bel	4a/	roal	[4e/	scop-	.
.	.	2G/	roal	[2c\	lau-	8g/L	mi-	8e/L]	.	.
.	.	.	.	.	.	8f/J	.	8f/J	pia	.
.	.	.	.	.	.	8e/L	.	4g/	pi&ugrave;	.
.	.	.	.	.	.	8d/J	.	.	.	.
=71	=71	=71	=71	=71	=71	=71	=71	=71	=71	.
2C/]	.	2A/	mio	4c\]	.	4c/	o	4e/	si	.
.	.	.	.	4A/	ro	4c/	gran	4f/	bel	.
2GG/	roal	2B-\	gran	2r	.	4.d/	fo-	4g/	lau-	.
.	.	.	.	.	.	.	.	4g/	roal	.
.	.	.	.	.	.	8e/	.	.	.	.
=72	=72	=72	=72	=72	=72	=72	=72	=72	=72	.
2AA/	mio	2A/	fo-	2r	.	4f/	.	2c/	mio	.
.	.	.	.	.	.	4e/	co	.	.	.
2BB-/	gran	4D/	co	2G/	al	4r	.	2d/	gran	.
.	.	4D/	al	.	.	4g/	al	.	.	.
=73	=73	=73	=73	=73	=73	=73	=73	=73	=73	.
[1AA/	fo-	2E/	mio	4A/	mio	2c/	mio	[1a/	fo-	.
.	.	.	.	2e\	gran	.	.	.	.	.
.	.	2F/	gran	.	.	2d/	gran	.	.	.
.	.	.	.	[4d\	fo-	.	.	.	.	.
=74	=74	=74	=74	=74	=74	=74	=74	=74	=74	.
1AA/]	.	1E/	fo-	4d\]	.	1e/	fo-	1a/]	.	.
.	.	.	.	8c\L	.	.	.	.	.	.
.	.	.	.	8B\J	.	.	.	.	.	.
.	.	.	.	2c\	.	.	.	.	.	.
=75	=75	=75	=75	=75	=75	=75	=75	=75	=75	.
1D\	co.	1D/	co.	1d\	co.	1f#/	co.	1a/	co.	>
==	==	==	==	==	==	==	==	==	==	==
*-	*-	*-	*-	*-	*-	*-	*-	*-	*-	*-
